iu/square-enix-ffxiv.svg

<svg viewBox="0 0 753 811" xmlns="http://www.w3.org/2000/svg" xml:space="preserve" style="fill-rule:evenodd;clip-rule:evenodd;stroke-linejoin:round;stroke-miterlimit:2" height="1em" width="1em">
  <path d="M0 156.186c-32.082 0-58.09-26.009-58.09-58.091S-32.082 40.004 0 40.004c32.084 0 58.092 26.009 58.092 58.091S32.084 156.186 0 156.186m94.631-47.909c-.912-.153-1.674-5.322-1.977-6.235-.304-.912-2.129-6.082-2.129-6.082-1.826 6.995-8.212 15.207-13.687 15.207s-9.58-6.387-10.037-7.299c-.455-.912.914-3.65 0-4.562-.912-.912-2.737-3.498-2.737-5.019 0-1.52 1.825-1.825 2.282-4.106.455-2.281 4.105-3.193 4.105-6.387 0-3.193 3.346-6.691 3.346-8.972 0-2.282-4.563-2.89-4.865-4.563-.305-1.673 5.625-2.281 5.322-5.17-.305-2.889-7.301-8.213-7.451-12.622-.153-4.409 9.58-10.188 11.404-10.188 1.824 0 3.193-4.107.609-4.258-2.586-.152-1.978-4.41.151-5.779 2.129-1.369 6.084-2.282 6.084-3.194 0-.912 2.281-3.65 2.736-7.299.457-3.65-3.041-.913-6.387 1.977-3.345 2.889-6.386.152-8.363 1.064-1.976.913 1.977 6.843.76 7.452-1.217.608-1.369 1.673-1.977 4.562-.609 2.889-7.756 1.368-8.211.153-.457-1.217-2.129-3.042-3.195-2.434-1.064.608-4.865 1.824-5.625 1.064-.762-.759-4.562-2.129-4.41.153.15 2.28-2.738 5.778-4.563 5.778-1.826 0-4.867-5.171-5.627-6.691-.759-1.521.608-3.802-.152-6.236-.762-2.432-5.322.457-4.715 2.739.61 2.28-4.865 3.953-7.299 4.105-2.433.152-2.736-2.889-5.322-2.737-2.586.151-7.146-2.281-7.146-9.124 0-6.844 8.818-11.254 10.797-11.254 1.976 0 5.777 2.586 7.906 2.586 2.129 0 4.715-2.586 6.539-2.586 1.826 0 3.498 1.674 5.019 1.674 1.52 0 1.825-1.826 4.563-1.826 2.736 0 5.475 1.978 6.234-.913.76-2.888 6.539-10.797 9.58-13.99 3.041-3.193 4.258-18.4 0-13.533-4.257 4.866-12.013 9.732-14.75 8.058-2.738-1.671-5.474-.152-8.82 3.457-3.346 3.608-8.518 2.93-11.254 1.258-2.738-1.672-3.803-3.041-9.275 5.323-5.475 8.363-11.406 9.427-21.291 7.603-9.885-1.824-9.125 8.06-13.991 16.119-4.867 8.061-10.189 4.41-15.359 1.065s1.217-6.235 1.217-6.235c8.06-4.716-1.522-6.84-4.41-7.6-2.891-.761-.457-8.365-3.498-8.365-3.041 0-6.844 10.038-10.95 14.904-4.105 4.866-8.82 1.368-9.732 2.737-.912 1.369 2.129 6.844 5.627 9.276 3.498 2.433-1.977 5.931 1.217 8.06 3.193 2.129-.002 9.734-4.108 5.172-4.105-4.563-9.125 8.668-13.078 8.973-3.953.303-17.64-8.213-14.295-5.78.145.105.276.219.395.342 2.658 2.744-.527 9.879-.09 10.608.455.76 11.254 1.824 11.254 5.474 0 3.649-8.213 7.756-8.973 10.036-.759 2.281 9.428 8.517 7.908 10.798-1.521 2.281 1.672 13.08 1.672 13.08-1.369 14.449-13.078 13.075-16.576 13.987-3.498.913 9.733 16.121 9.733 16.121s12.47 3.345 12.47 12.621c0 9.277-6.388 11.861-6.388 11.861 7.3 1.064 21.291 4.106 29.959 9.277 8.668 5.17 2.281 12.469 6.994 13.686 4.715 1.217 11.861-7.604 15.969-6.539 4.105 1.065 11.709 6.387 14.597 5.931 2.891-.457 8.061-13.23 13.99-11.101 5.932 2.129 14.295 10.492 14.295 10.492 2.889.305 8.973 2.89 8.973 2.89 2.736-21.899 23.42-22.357 24.332-23.876.912-1.522-.912-12.166.305-15.512s5.929-3.498 8.363-3.953c2.434-.457 5.17-.457 5.018-3.65-.153-3.194 5.931-8.668 9.125-10.95 3.193-2.281 7.757-7.148 9.886-8.213 2.129-1.064 2.889-2.738 1.977-2.89" style="fill:#9f2637;fill-rule:nonzero" transform="translate(356.482 71.752) scale(4.16667)"/>
</svg>

<svg viewBox="0 0 753 811" version="1.1" xmlns="http://www.w3.org/2000/svg" xml:space="preserve" style="fill-rule:evenodd;clip-rule:evenodd;stroke-linejoin:round;stroke-miterlimit:2" height="1em" width="1em">
  <g transform="matrix(4.16667,0,0,4.16667,356.482,71.7524)">
    <path d="M0,156.186C-32.082,156.186 -58.09,130.177 -58.09,98.095C-58.09,66.013 -32.082,40.004 0,40.004C32.084,40.004 58.092,66.013 58.092,98.095C58.092,130.177 32.084,156.186 0,156.186M94.631,108.277C93.719,108.124 92.957,102.955 92.654,102.042C92.35,101.13 90.525,95.96 90.525,95.96C88.699,102.955 82.313,111.167 76.838,111.167C71.363,111.167 67.258,104.78 66.801,103.868C66.346,102.956 67.715,100.218 66.801,99.306C65.889,98.394 64.064,95.808 64.064,94.287C64.064,92.767 65.889,92.462 66.346,90.181C66.801,87.9 70.451,86.988 70.451,83.794C70.451,80.601 73.797,77.103 73.797,74.822C73.797,72.54 69.234,71.932 68.932,70.259C68.627,68.586 74.557,67.978 74.254,65.089C73.949,62.2 66.953,56.876 66.803,52.467C66.65,48.058 76.383,42.279 78.207,42.279C80.031,42.279 81.4,38.172 78.816,38.021C76.23,37.869 76.838,33.611 78.967,32.242C81.096,30.873 85.051,29.96 85.051,29.048C85.051,28.136 87.332,25.398 87.787,21.749C88.244,18.099 84.746,20.836 81.4,23.726C78.055,26.615 75.014,23.878 73.037,24.79C71.061,25.703 75.014,31.633 73.797,32.242C72.58,32.85 72.428,33.915 71.82,36.804C71.211,39.693 64.064,38.172 63.609,36.957C63.152,35.74 61.48,33.915 60.414,34.523C59.35,35.131 55.549,36.347 54.789,35.587C54.027,34.828 50.227,33.458 50.379,35.74C50.529,38.02 47.641,41.518 45.816,41.518C43.99,41.518 40.949,36.347 40.189,34.827C39.43,33.306 40.797,31.025 40.037,28.591C39.275,26.159 34.715,29.048 35.322,31.33C35.932,33.61 30.457,35.283 28.023,35.435C25.59,35.587 25.287,32.546 22.701,32.698C20.115,32.849 15.555,30.417 15.555,23.574C15.555,16.73 24.373,12.32 26.352,12.32C28.328,12.32 32.129,14.906 34.258,14.906C36.387,14.906 38.973,12.32 40.797,12.32C42.623,12.32 44.295,13.994 45.816,13.994C47.336,13.994 47.641,12.168 50.379,12.168C53.115,12.168 55.854,14.146 56.613,11.255C57.373,8.367 63.152,0.458 66.193,-2.735C69.234,-5.928 70.451,-21.135 66.193,-16.268C61.936,-11.402 54.18,-6.536 51.443,-8.21C48.705,-9.881 45.969,-8.362 42.623,-4.753C39.277,-1.145 34.105,-1.823 31.369,-3.495C28.631,-5.167 27.566,-6.536 22.094,1.828C16.619,10.191 10.688,11.255 0.803,9.431C-9.082,7.607 -8.322,17.491 -13.188,25.55C-18.055,33.611 -23.377,29.96 -28.547,26.615C-33.717,23.27 -27.33,20.38 -27.33,20.38C-19.27,15.664 -28.852,13.54 -31.74,12.78C-34.631,12.019 -32.197,4.415 -35.238,4.415C-38.279,4.415 -42.082,14.453 -46.188,19.319C-50.293,24.185 -55.008,20.687 -55.92,22.056C-56.832,23.425 -53.791,28.9 -50.293,31.332C-46.795,33.765 -52.27,37.263 -49.076,39.392C-45.883,41.521 -49.078,49.126 -53.184,44.564C-57.289,40.001 -62.309,53.232 -66.262,53.537C-70.215,53.84 -83.902,45.324 -80.557,47.757C-80.412,47.862 -80.281,47.976 -80.162,48.099C-77.504,50.843 -80.689,57.978 -80.252,58.707C-79.797,59.467 -68.998,60.531 -68.998,64.181C-68.998,67.83 -77.211,71.937 -77.971,74.217C-78.73,76.498 -68.543,82.734 -70.063,85.015C-71.584,87.296 -68.391,98.095 -68.391,98.095C-69.76,112.544 -81.469,111.17 -84.967,112.082C-88.465,112.995 -75.234,128.203 -75.234,128.203C-75.234,128.203 -62.764,131.548 -62.764,140.824C-62.764,150.101 -69.152,152.685 -69.152,152.685C-61.852,153.749 -47.861,156.791 -39.193,161.962C-30.525,167.132 -36.912,174.431 -32.199,175.648C-27.484,176.865 -20.338,168.044 -16.23,169.109C-12.125,170.174 -4.521,175.496 -1.633,175.04C1.258,174.583 6.428,161.81 12.357,163.939C18.289,166.068 26.652,174.431 26.652,174.431C29.541,174.736 35.625,177.321 35.625,177.321C38.361,155.422 59.045,154.964 59.957,153.445C60.869,151.923 59.045,141.279 60.262,137.933C61.479,134.587 66.191,134.435 68.625,133.98C71.059,133.523 73.795,133.523 73.643,130.33C73.49,127.136 79.574,121.662 82.768,119.38C85.961,117.099 90.525,112.232 92.654,111.167C94.783,110.103 95.543,108.429 94.631,108.277" style="fill:rgb(159,38,55);fill-rule:nonzero"/>
  </g>
</svg>
